X:235
T:Waltz. CJF.235
R:Waltz
S:C.J.Fox MS, 1829/33, Beverley,E.Yorks.
B:Kidson Coll.Mitchell Lib.M1805
O:England
A:East Yorkshire
Z:vmp.P J Headford 2000 & 2008
M:3/4
L:1/8
Q:3/4=60
K:D
” f”cd|A2.A.A.A.A|F2D2A2|.F.F.D.D.F.F|A4cd”p”|\
e2dcBA|f2edcd|e2dcBA|d4:|!
|:A2|AFdcBA|BAGFED|AGFEDC|DEFGBA|\
AFdcBA|BAGFED|AGFEDC|D4:|!
|:d2|cAcecA|dAdfdA|cAcecA|dAdfdA|\
BGBdBG|AFAdAF|gfgece|d4:|!
|:cd|fedcde|fedcde|gfedce|dfedce|\
fedcde|fedcdf|gfedce|d4:|

